src/assets/whyussvg3.svg

"<svg xmlns=\"http://www.w3.org/2000/svg\" viewBox=\"0 0 48 48\" fill=\"none\"><g clip-path=\"url(#clip0_1192_8790)\"><path d=\"M10.875 38.625C9.3241 38.625 8.0625 39.8866 8.0625 41.4375C8.0625 42.9884 9.3241 44.25 10.875 44.25C12.4259 44.25 13.6875 42.9884 13.6875 41.4375C13.6875 39.8866 12.4259 38.625 10.875 38.625ZM10.875 42.375C10.3579 42.375 9.9375 41.9546 9.9375 41.4375C9.9375 40.9204 10.3579 40.5 10.875 40.5C11.3921 40.5 11.8125 40.9204 11.8125 41.4375C11.8125 41.9546 11.3921 42.375 10.875 42.375Z\" fill=\"#CCCCCC\"></path><path d=\"M45.1875 38.625H43.6875V18.375C43.6875 17.8572 43.2678 17.4375 42.75 17.4375H38.0625V4.6875C38.0625 4.16968 37.6428 3.75 37.125 3.75C33.175 3.75 22.0411 3.75 18.375 3.75C17.8572 3.75 17.4375 4.16968 17.4375 4.6875V38.625H16.8051C16.1565 37.2528 15.0601 36.1564 13.6875 35.5074V2.8125C13.6875 1.2616 12.4259 0 10.875 0H2.8125C1.2616 0 0 1.2616 0 2.8125C0 4.3634 1.2616 5.625 2.8125 5.625H8.0625V35.5074C5.79492 36.5841 4.3125 38.8883 4.3125 41.4375C4.3125 45.056 7.25647 48 10.875 48C13.4242 48 15.7284 46.5176 16.8051 44.25H45.1875C46.7384 44.25 48 42.9884 48 41.4375C48 39.8866 46.7384 38.625 45.1875 38.625ZM41.8125 38.625H19.3125V19.3125H25.875V29.25C25.875 29.6052 26.0757 29.9297 26.3932 30.0886C26.7107 30.2476 27.0908 30.2131 27.375 30L30.5625 27.6094L33.75 30C34.0345 30.2135 34.4147 30.2472 34.7318 30.0886C35.0493 29.9297 35.25 29.6052 35.25 29.25V19.3125H41.8125V38.625ZM27.75 19.3125H33.375V27.375L31.125 25.6875C30.9584 25.5626 30.7603 25.5 30.5625 25.5C30.3647 25.5 30.1666 25.5626 30 25.6875L27.75 27.375V19.3125ZM25.875 5.625H29.625V10.998L28.27 10.095C28.1125 9.98987 27.9313 9.9375 27.75 9.9375C27.5687 9.9375 27.3875 9.98987 27.23 10.095L25.875 10.998V5.625ZM24 5.625V12.75C24 13.0957 24.1904 13.4132 24.4951 13.5765C24.8002 13.7399 25.17 13.7216 25.4575 13.53L27.75 12.0018L30.0425 13.53C30.3303 13.7219 30.7006 13.7395 31.0049 13.5765C31.3096 13.4136 31.5 13.0957 31.5 12.75V5.625H36.1875V17.4375C31.0118 17.4375 24.423 17.4375 19.3125 17.4375V5.625H24ZM2.8125 3.75C2.29541 3.75 1.875 3.32959 1.875 2.8125C1.875 2.29541 2.29541 1.875 2.8125 1.875H10.875C11.3921 1.875 11.8125 2.29541 11.8125 2.8125V34.9427C11.5034 34.8984 11.1907 34.875 10.875 34.875C10.5593 34.875 10.2466 34.8984 9.9375 34.9427V4.6875C9.9375 4.16968 9.51782 3.75 9 3.75H2.8125ZM10.875 46.125C8.29028 46.125 6.1875 44.0222 6.1875 41.4375C6.1875 38.8806 8.25586 36.75 10.875 36.75C13.4934 36.75 15.5625 38.8828 15.5625 41.4375C15.5625 44.0566 13.4319 46.125 10.875 46.125ZM45.1875 42.375H17.3698C17.4141 42.0659 17.4375 41.7532 17.4375 41.4375C17.4375 41.1218 17.4137 40.8091 17.3698 40.5H45.1875C45.7046 40.5 46.125 40.9204 46.125 41.4375C46.125 41.9546 45.7046 42.375 45.1875 42.375Z\" fill=\"#CCCCCC\"></path></g><defs><clipPath id=\"clip0_1192_8790\"><rect width=\"48\" height=\"48\" fill=\"white\"></rect></clipPath></defs></svg>"

<svg xmlns="http://www.w3.org/2000/svg" fill="none" viewBox="0 0 48 48"><g fill="#CCC" clip-path="url(#a)"><path d="M10.875 38.625a2.816 2.816 0 0 0-2.813 2.813 2.816 2.816 0 0 0 2.813 2.812 2.816 2.816 0 0 0 2.813-2.813 2.816 2.816 0 0 0-2.813-2.812Zm0 3.75a.938.938 0 1 1 .002-1.877.938.938 0 0 1-.002 1.877Z"/><path d="M45.188 38.625h-1.5v-20.25a.937.937 0 0 0-.938-.938h-4.688V4.688a.937.937 0 0 0-.937-.937h-18.75a.937.937 0 0 0-.938.938v33.937h-.632a6.524 6.524 0 0 0-3.117-3.118V2.813A2.816 2.816 0 0 0 10.874 0H2.812A2.816 2.816 0 0 0 0 2.813a2.816 2.816 0 0 0 2.813 2.812h5.25v29.882a6.577 6.577 0 0 0-3.75 5.93A6.57 6.57 0 0 0 10.875 48a6.576 6.576 0 0 0 5.93-3.75h28.383A2.816 2.816 0 0 0 48 41.437a2.816 2.816 0 0 0-2.813-2.812Zm-3.376 0h-22.5V19.312h6.563v9.938a.938.938 0 0 0 1.5.75l3.188-2.39L33.75 30a.937.937 0 0 0 1.5-.75v-9.938h6.563v19.313ZM27.75 19.312h5.625v8.063l-2.25-1.688a.937.937 0 0 0-1.125 0l-2.25 1.688v-8.063ZM25.875 5.626h3.75v5.373l-1.355-.903a.935.935 0 0 0-1.04 0l-1.355.903V5.625Zm-1.875 0v7.125a.938.938 0 0 0 1.457.78l2.293-1.528 2.293 1.528a.938.938 0 0 0 1.457-.78V5.625h4.688v11.813H19.311V5.624H24ZM2.812 3.75a.938.938 0 0 1 0-1.875h8.063c.517 0 .938.42.938.938v32.13a6.602 6.602 0 0 0-1.876 0V4.688A.937.937 0 0 0 9 3.75H2.812Zm8.063 42.375a4.693 4.693 0 0 1-4.688-4.688 4.688 4.688 0 0 1 9.375 0c0 2.62-2.13 4.688-4.687 4.688Zm34.313-3.75H17.37a6.602 6.602 0 0 0 0-1.875h27.817a.938.938 0 0 1 0 1.875Z"/><path d="M39 36.75c.518 0 .938-.42.938-.938v-1.874a.937.937 0 1 0-1.876 0v1.874c0 .518.42.938.938.938ZM39 29.25a.938.938 0 1 1 0 1.876.938.938 0 0 1 0-1.876ZM35.25 33a.937.937 0 0 0-.938.938v1.874a.937.937 0 1 0 1.876 0v-1.874A.937.937 0 0 0 35.25 33Z"/></g><defs><clipPath id="a"><path fill="#fff" d="M0 0h48v48H0z"/></clipPath></defs></svg>
